X:2155
T:Ganivelle (F. Paris)
O:england
M:2/4
L:1/16
K:G
GA|B3d A2GA|B2G2 G2AB|cBcd cBAG|A3B A2GA|\
B3d A2GA|B2G2 G2AB|cBcd efdc|A6:|
|:cd|e3d c2Bc|d2G2 G2cd|eged c2Bc|d3e dBcd|\
e3d c2Bc|d2G2 G2AB|cBcd cBAG|A6:|


